X: 15174
T: Gillan's Apples
R: jig
M: 6/8
K: Gmajor
g3 B2A|GBA GBd|efe edB|dBA A2 D|
GBA G2D|GBd g2 a|bag fge|ed^c d3:|
faa faa|faa agf|gbb gbb|gbb bag|
faa faa|faa aga|bag fge|ed^c d3:|

